share/.local/share/icons/Papirus-Nordic/24x24/apps/josm.svg

<svg width="24" height="24" version="1.1" xmlns="http://www.w3.org/2000/svg">
 <path d="m3.0145152 4.3655762v15.527183s-0.143043 0.838586 0.4689597 1.014965l5.5165251 1.592118 6-1.749999 5.148415 1.506167c0.910552 0.317401 0.846053-0.633432 0.846053-0.633432v-15.650742c0.084172-0.8133676-0.820004-0.9810453-0.820004-0.9810453l-5.174464-1.4909479-6 1.7499998-5.2026589-1.5243896s-0.7828259-0.217244-0.7828259 0.6401227z" style="opacity:.2"/>
 <path d="M 3.0146485,8.7293345 3.0145152,19.392758 c 0,0 -0.143043,0.838586 0.4689597,1.014965 l 0.2430876,0.0708 8.5820315,0.556635 L 15,20.249842 l 0.988281,0.289063 5.006187,0.583672 V 5.471836 C 21.07864,4.6584684 20.174464,4.4907907 20.174464,4.4907907 L 15,2.9998428 14.342773,3.1912488 13,5 12.121094,3.8398438 9,4.7498426 7.7158205,4.3738675 Z" style="fill:#ffc107"/>
 <path d="m14.342773 3.1912488-2.221679 0.6484375c-0.623514 0.6408962-0.978516 1.276738-0.978516 2.3984372 0 1.40341 0.565671 1.7000685 0.75 2.375 0.350057 1.2818525 0.48482 2.1854055 0.90332 3.2392575 0.575893 1.450694 0.09062 3.739368 0.704102 5.181641 0.349971 0.82283 0.535714 0.971502 1.5 1.40332 0.214285 0.215909 0.535435 0.647373 0.642578 0.863281 0.236681 0.476931 0.174201 0.880226 0.345703 1.238282l4.160156 1.216797c0.910553 0.317401 0.845703-0.632813 0.845703-0.632813v-0.242187c-0.443192-4.064497-3.215784-4.69367-4.371093-5.666016-1.301015-1.094962-0.469826-2.142989-0.980469-3.686523-0.121393-0.366938-0.428293-1.619052-0.642578-1.834961-0.964286-0.6477275-1.499861-1.2954545-1.821289-2.375-0.65374-2.1957084 1.339173-3.3652673 1.164062-4.1269532zm-7.1992185 15.878906c-0.093178-0.0072-0.18807-0.0035-0.2861325 0.01465-0.894493 0.165321-0.857701 1.187588-1.714844 0.971679-0.4374417-0.110143-1.0342163 0.05175-1.4160154 0.421875l5.2734374 1.521483 3.308594-0.964844c-0.6656-1.015588-2.8085466-2.53288-3.308594-1.625976-0.65625 0.283381-1.2041945-0.288703-1.8564455-0.338867z" style="fill:#0c7bd4"/>
 <path d="m12.121094 3.8398438c-0.623514 0.6408962-0.978516 1.2767382-0.978516 2.3984374 0 0.099787 0.0024 0.19212 0.0078 0.28125 0.045-0.9847813 0.389973-1.5827683 0.970703-2.1796874zm0.939453 2.828125c-0.0348 0.3490058-0.0058 0.7307321 0.119141 1.1503906 0.321428 1.0795455 0.856026 1.7272727 1.820312 2.3749996 0.214285 0.215909 0.521185 1.467047 0.642578 1.833985 0.510643 1.543534-0.320546 2.592538 0.980469 3.6875 1.147715 0.965954 3.890796 1.594815 4.361328 5.58789 0.01318-0.101902 0.0098-0.179687 0.0098-0.179687v-0.242188c-0.443226-4.064497-3.215819-4.693669-4.371128-5.666015-1.301015-1.094962-0.469826-2.143966-0.980469-3.6875-0.121393-0.366938-0.428293-1.6180756-0.642578-1.8339846-0.964286-0.6477275-1.498884-1.2954545-1.820312-2.375-0.067966-0.2282733-0.102978-0.4436047-0.119141-0.6503906zm-6.0585939 12.40039c-0.047628 0.0023-0.0955 0.0066-0.1445312 0.01563-0.894493 0.165321-0.8577008 1.188566-1.7148438 0.972657-0.4374417-0.110143-1.0342165 0.05175-1.4160156 0.421875l0.546875 0.158203c0.2937649-0.113101 0.6093658-0.145487 0.8691406-0.08008 0.857143 0.215909 0.8203508-0.807336 1.7148438-0.972657 0.098062-0.01815 0.1919782-0.02087 0.2851562-0.01367 0.652251 0.050159 1.2011719 0.621267 1.8574219 0.337886 0.4363343-0.791352 2.123187 0.264405 2.988281 1.220703l0.320313-0.09375c-0.6656-1.015588-2.8085466-2.533857-3.308594-1.626953-0.65625 0.283381-1.2051709-0.287727-1.8574219-0.337891-0.046589-0.0036-0.092997-0.0042-0.140625-2e-3z" style="opacity:.2"/>
 <path d="m3.5498048 3.702052c-0.2293435 0.011709-0.5351563 0.1282084-0.5351563 0.6640625v4.863281c0.2056164-0.095495 0.4835155-0.2236325 0.6279297-0.2236325 0.46515 0 0.7501808 0.1075835 1.2246093 0.0459 0.2928-0.03815 0.493225-0.3171265 0.765625-0.3857425 0.257357-0.064773 0.5948755-0.04454 0.841797-0.168945 0.3370715-0.1697045 0.811082-0.6784765 1.071289-1.7734375 0.0752785-0.316825-0.091797-0.663441-0.091797-0.9873048 0-0.2617772 0.073954-0.6380097 0.261719-0.8623047l-3.9189454-1.148439s-0.1094642-0.030463-0.2470703-0.023437z" style="opacity:.2"/>
 <path d="m11.892857 10.516948-0.214286-0.8636355-1.178571 0.9715905 0.214286 0.863636z" style="opacity:.2"/>
 <path d="m6 17.965812 3-0.215909 1.392857-0.863636v-2.051137l-1.392857 0.863636-3 0.323864z" style="opacity:.2"/>
 <path d="M 10.178571,13.107857 9.8571429,11.510131 9,12.136267 7.714286,12.460131 7.1785715,9.761267 4.9285714,10.30104 5.785714,14.889107 9,14.079448 Z" style="opacity:.2"/>
 <path d="m18.428571 6.73854v1.943182l1.821429 0.539772v-1.943181z" style="opacity:.2"/>
 <path d="m9 6.090813 2.678571-0.8636365v0.8636365l-0.642857 0.215909v0.286792l-2.035714 0.684799-0.3214285-0.107955v-1.1874997z" style="opacity:.2"/>
 <path d="m17.035714 13.323767 1.821429 1.1875 0.642857-0.863637-1.821429-1.187499z" style="opacity:.2"/>
 <path d="m19.392578 10.084864-0.642578 0.864258 1.821289 1.1875 0.422851-0.568359v-0.439454z" style="opacity:.2"/>
 <path d="m17.892857 12.136267 1.821428 1.1875 0.642857-0.863636-1.821428-1.1875z" style="opacity:.2"/>
 <path d="m3.5498048 3.201991c-0.2293435 0.011709-0.5351563 0.1282084-0.5351563 0.6640625v4.863281c0.2056164-0.095495 0.4835155-0.2236325 0.6279297-0.2236325 0.46515 0 0.7501808 0.1075835 1.2246093 0.0459 0.2928-0.03815 0.493225-0.3171265 0.765625-0.3857425 0.257357-0.064773 0.5948755-0.04454 0.841797-0.168945 0.3370715-0.1697045 0.811082-0.6784765 1.071289-1.7734375 0.0752785-0.316825-0.091797-0.663441-0.091797-0.9873048 0-0.2617772 0.073954-0.6380097 0.261719-0.8623047l-3.9189454-1.148439s-0.1094642-0.030463-0.2470703-0.023437z" style="fill:#4caf50"/>
 <path d="m11.892857 10.016887-0.214286-0.8636355-1.178571 0.9715905 0.214286 0.863636z" style="fill:#81c784"/>
 <path d="m6 17.465751 3-0.215909 1.392857-0.863636v-2.051137l-1.392857 0.863636-3 0.323864z" style="fill:#4d7687"/>
 <path d="M 10.178571,12.607796 9.8571429,11.01007 9,11.636206 7.714286,11.96007 7.1785715,9.261206 4.9285714,9.800979 5.785714,14.389046 9,13.579387 Z" style="fill:#df5050"/>
 <path d="m18.428571 6.238479v1.943182l1.821429 0.539772v-1.943181z" style="fill:#ff8a65"/>
 <path d="m9 5.590752 2.678571-0.8636365v0.8636365l-0.642857 0.215909v0.286792l-2.035714 0.684799-0.3214285-0.107955v-1.1874997z" style="fill:#00bcd4"/>
 <path d="m17.035714 12.823706 1.821429 1.1875 0.642857-0.863637-1.821429-1.187499z" style="fill:#b89b00"/>
 <path d="m19.392578 9.5848035-0.642578 0.8642575 1.821289 1.1875 0.422851-0.568359v-0.439454z" style="fill:#b89b00"/>
 <path d="m17.892857 11.636206 1.821428 1.1875 0.642857-0.863636-1.821428-1.1875z" style="fill:#b89b00"/>
 <path d="m4.5644531 10.167811-0.321289 0.108398 0.7285156 4.209961-0.1005859 3.511719 0.3652342-0.05566 0.099609-3.477539zm0.6718749 7.774414-0.00781 0.257813-0.3642577 0.02149 0.00684-0.223633-0.049804 0.0078-1.8066405 1.273438v0.113281s-0.037989 0.240081 0.017578 0.490234l1.8964772-1.336907 0.213867-0.06543 3.857422-0.258789 1.928711-1.1875-0.107422-0.540039-1.821289 1.1875-3.75 0.258789z" style="fill:#646464"/>
 <ellipse cx="5.047" cy="18.232" rx=".289" ry=".291" style="fill:#222222;stroke-linecap:round;stroke-linejoin:round;stroke-width:.17207669;stroke:#ffffff"/>
 <ellipse cx="10.928" cy="16.721" rx=".289" ry=".291" style="fill:#222222;stroke-linecap:round;stroke-linejoin:round;stroke-width:.17207669;stroke:#ffffff"/>
 <ellipse cx="4.393" cy="10.243" rx=".289" ry=".291" style="fill:#222222;stroke-linecap:round;stroke-linejoin:round;stroke-width:.17207669;stroke:#ffffff"/>
 <ellipse cx="5.143" cy="14.475" rx=".289" ry=".291" style="fill:#222222;stroke-linecap:round;stroke-linejoin:round;stroke-width:.17207669;stroke:#ffffff"/>
 <path d="m3.0145152 3.8655757v15.527182s-0.143043 0.838586 0.4689597 1.014965l5.5165251 1.592119v-17.249999l-5.2026589-1.5243896s-0.7828259-0.217244-0.7828259 0.6401227z" style="fill:#ffffff;opacity:.3"/>
 <path d="m15 20.249842 5.148415 1.506167c0.910552 0.317401 0.846053-0.633432 0.846053-0.633432v-15.650741c0.084172-0.8133676-0.820004-0.9810453-0.820004-0.9810453l-5.174464-1.4909479z" style="fill:#ffffff;opacity:.3"/>
 <path d="m15 2.9998426-6 1.75-5.2031249-1.5244141s-0.7822266-0.2167416-0.7822266 0.640625v0.5c0-0.8573666 0.7822266-0.640625 0.7822266-0.640625l5.2031249 1.5244141 6-1.75 5.174804 1.4912109s0.903508 0.1671011 0.819336 0.9804685v-0.4999997c0.084172-0.8133676-0.819336-0.9804688-0.819336-0.9804688zm-11.985352 16.392577s-0.018547 0.164586 0 0.355469z" style="fill:#ffffff;opacity:.2"/>
 <path transform="matrix(.49999999 0 0 .49999999 1.3843376e-7 .49984265)" d="m37.181641 3.0019531c-1.644601 0.050645-3.104898 1.5685395-3.664063 2.5566407l-11.083984 19.980468-0.31836 5.472657-0.115234 1.988281 1.582031-1.142578 4.351563-3.144531 0.140625-0.101563 11.322265-20.146484c1.275753-2.1373184 0.339885-4.6352771-1.054687-5.2402344-0.390215-0.1692729-0.780633-0.2343436-1.160156-0.2226563z" style="opacity:.2"/>
 <path transform="matrix(.49999999 0 0 .49999999 1.3843376e-7 .49984265)" d="m22.433594 24.539062-0.31836 5.472657 1.466797 0.845703 4.351563-3.144531z" style="fill:#d9c8b0"/>
 <path transform="matrix(.49999999 0 0 .49999999 1.3843376e-7 .49984265)" d="M 22.115234,30.011719 22,32 23.582031,30.857422 Z" style="fill:#505050"/>
 <path transform="matrix(.49999999 0 0 .49999999 1.3843376e-7 .49984265)" d="m37.181641 2.0019531c-1.644601 0.050645-3.104898 1.5685395-3.664063 2.5566407l-11.083984 19.980468 5.5 3.173829 0.140625-0.101563 11.322265-20.146484c1.275753-2.1373184 0.339885-4.6352771-1.054687-5.2402344-0.390215-0.1692729-0.780633-0.2343436-1.160156-0.2226563z" style="fill:#a15f34"/>
 <path transform="matrix(.49999999 0 0 .49999999 1.3843376e-7 .49984265)" d="m37.179688 2.0003147c-1.644601 0.050645-3.104898 1.5704926-3.664063 2.5585938l-11.082031 19.98047-0.320313 5.472656-0.113281 1.988281 0.058594-0.042968 0.054687-0.945313 0.320313-5.472656 11.082031-19.980469c0.559165-0.9881012 2.019462-2.5079488 3.664063-2.5585938 0.379523-0.0116873 0.769941 0.0533833 1.160156 0.2226562 0.820587 0.3559657 1.483074 1.3704544 1.628907 2.5781251 0.197282-1.6226298-0.588874-3.1269649-1.628907-3.5781251-0.390215-0.1692729-0.780633-0.2343436-1.160156-0.2226563z" style="fill:#ffffff;opacity:.2"/>
</svg>

<svg xmlns="http://www.w3.org/2000/svg" width="24" height="24" version="1.1">
 <path style="opacity:0.2" d="M 3.0145152,4.3655762 V 19.892759 c 0,0 -0.143043,0.838586 0.4689597,1.014965 L 9,22.499842 l 6,-1.749999 5.148415,1.506167 c 0.910552,0.317401 0.846053,-0.633432 0.846053,-0.633432 V 5.9718365 C 21.07864,5.1584689 20.174464,4.9907912 20.174464,4.9907912 L 15,3.4998433 9,5.2498431 3.7973411,3.7254535 c 0,0 -0.7828259,-0.217244 -0.7828259,0.6401227 z"/>
 <path style="fill:#ffc107" d="M 3.0145152,3.8655757 V 19.392758 c 0,0 -0.143043,0.838586 0.4689597,1.014965 L 9,21.999842 l 6,-1.75 5.148415,1.506167 c 0.910552,0.317401 0.846053,-0.633432 0.846053,-0.633432 V 5.471836 C 21.07864,4.6584684 20.174464,4.4907907 20.174464,4.4907907 L 15,2.9998428 9,4.7498426 3.7973411,3.225453 c 0,0 -0.7828259,-0.217244 -0.7828259,0.6401227 z"/>
 <path style="fill:#0c7bd4" d="m 14.342773,3.1912488 -2.221679,0.6484375 c -0.623514,0.6408962 -0.978516,1.276738 -0.978516,2.3984372 0,1.40341 0.565671,1.7000685 0.75,2.375 0.350057,1.2818525 0.48482,2.1854055 0.90332,3.2392575 0.575893,1.450694 0.09062,3.739368 0.704102,5.181641 0.349971,0.82283 0.535714,0.971502 1.5,1.40332 0.214285,0.215909 0.535435,0.647373 0.642578,0.863281 0.236681,0.476931 0.174201,0.880226 0.345703,1.238282 l 4.160156,1.216797 c 0.910553,0.317401 0.845703,-0.632813 0.845703,-0.632813 V 20.880702 C 20.550948,16.816205 17.778356,16.187032 16.623047,15.214686 15.322032,14.119724 16.153221,13.071697 15.642578,11.528163 15.521185,11.161225 15.214285,9.909111 15,9.693202 14.035714,9.0454745 13.500139,8.3977475 13.178711,7.318202 12.524971,5.1224936 14.517884,3.9529347 14.342773,3.1912488 Z M 7.1435545,19.070155 c -0.093178,-0.0072 -0.18807,-0.0035 -0.2861325,0.01465 -0.894493,0.165321 -0.857701,1.187588 -1.714844,0.971679 -0.4374417,-0.110143 -1.0342163,0.05175 -1.4160154,0.421875 L 9,21.999842 12.308594,21.034998 C 11.642994,20.01941 9.5000474,18.502118 9,19.409022 8.34375,19.692403 7.7958055,19.120319 7.1435545,19.070155 Z"/>
 <path style="fill:#4caf50" d="M 3.5498048,3.201991 C 3.3204613,3.2137 3.0146485,3.3301994 3.0146485,3.8660535 v 4.863281 C 3.2202649,8.6338395 3.498164,8.505702 3.6425782,8.505702 c 0.46515,0 0.7501808,0.1075835 1.2246093,0.0459 0.2928,-0.03815 0.493225,-0.3171265 0.765625,-0.3857425 0.257357,-0.064773 0.5948755,-0.04454 0.841797,-0.168945 C 6.811681,7.82721 7.2856915,7.318438 7.5458985,6.223477 7.621177,5.906652 7.4541015,5.560036 7.4541015,5.2361722 c 0,-0.2617772 0.073954,-0.6380097 0.261719,-0.8623047 L 3.7968751,3.2254285 c 0,0 -0.1094642,-0.030463 -0.2470703,-0.023437 z"/>
 <path style="fill:#81c784" d="M 11.892857,10.016887 11.678571,9.1532515 10.5,10.124842 l 0.214286,0.863636 z"/>
 <path style="fill:#4d7687" d="m 6,17.465751 3,-0.215909 1.392857,-0.863636 V 14.335069 L 9,15.198705 6,15.522569 Z"/>
 <path style="fill:#df5050" d="M 10.178571,12.607796 9.8571429,11.01007 9,11.636206 7.714286,11.96007 7.1785715,9.261206 4.9285714,9.800979 5.785714,14.389046 9,13.579387 Z"/>
 <path style="fill:#ff8a65" d="M 18.428571,6.238479 V 8.181661 L 20.25,8.721433 V 6.778252 Z"/>
 <path style="fill:#00bcd4" d="M 9,5.590752 11.678571,4.7271155 V 5.590752 L 11.035714,5.806661 V 6.093453 L 9,6.778252 8.6785715,6.670297 V 5.4827973 Z"/>
 <path style="fill:#b89b00" d="m 17.035714,12.823706 1.821429,1.1875 L 19.5,13.147569 17.678571,11.96007 Z"/>
 <path style="fill:#b89b00" d="M 19.392578,9.5848035 18.75,10.449061 l 1.821289,1.1875 0.422851,-0.568359 v -0.439454 z"/>
 <path style="fill:#b89b00" d="m 17.892857,11.636206 1.821428,1.1875 0.642857,-0.863636 -1.821428,-1.1875 z"/>
 <path style="fill:#646464" d="m 4.5644531,10.167811 -0.321289,0.108398 0.7285156,4.209961 -0.1005859,3.511719 0.3652342,-0.05566 0.099609,-3.477539 z m 0.6718749,7.774414 -0.00781,0.257813 -0.3642577,0.02149 0.00684,-0.223633 -0.049804,0.0078 -1.8066405,1.273438 v 0.113281 c 0,0 -0.037989,0.240081 0.017578,0.490234 L 4.928711,18.545741 5.142578,18.480311 9,18.221522 10.928711,17.034022 10.821289,16.493983 9,17.681483 5.25,17.940272 Z"/>
 <ellipse style="fill:#222222;stroke:#ffffff;stroke-width:0.17207669;stroke-linecap:round;stroke-linejoin:round" cx="5.047" cy="18.232" rx=".289" ry=".291"/>
 <ellipse style="fill:#222222;stroke:#ffffff;stroke-width:0.17207669;stroke-linecap:round;stroke-linejoin:round" cx="10.928" cy="16.721" rx=".289" ry=".291"/>
 <ellipse style="fill:#222222;stroke:#ffffff;stroke-width:0.17207669;stroke-linecap:round;stroke-linejoin:round" cx="4.393" cy="10.243" rx=".289" ry=".291"/>
 <ellipse style="fill:#222222;stroke:#ffffff;stroke-width:0.17207669;stroke-linecap:round;stroke-linejoin:round" cx="5.143" cy="14.475" rx=".289" ry=".291"/>
 <path style="opacity:0.3;fill:#ffffff" d="M 3.0145152,3.8655757 V 19.392758 c 0,0 -0.143043,0.838586 0.4689597,1.014965 L 9,21.999842 V 4.7498426 L 3.7973411,3.225453 c 0,0 -0.7828259,-0.217244 -0.7828259,0.6401227 z"/>
 <path style="opacity:0.3;fill:#ffffff" d="m 15,20.249842 5.148415,1.506167 c 0.910552,0.317401 0.846053,-0.633432 0.846053,-0.633432 V 5.471836 C 21.07864,4.6584684 20.174464,4.4907907 20.174464,4.4907907 L 15,2.9998428 Z"/>
 <path style="opacity:0.2;fill:#ffffff" d="m 15,2.9998426 -6,1.75 -5.2031249,-1.5244141 c 0,0 -0.7822266,-0.2167416 -0.7822266,0.640625 v 0.5 c 0,-0.8573666 0.7822266,-0.640625 0.7822266,-0.640625 L 9,5.2498426 l 6,-1.75 5.174804,1.4912109 c 0,0 0.903508,0.1671011 0.819336,0.9804685 V 5.4715223 C 21.078312,4.6581547 20.174804,4.4910535 20.174804,4.4910535 Z M 3.0146485,19.39242 c 0,0 -0.018547,0.164586 0,0.355469 z"/>
 <g transform="matrix(0.49999999,0,0,0.49999999,1.3843376e-7,0.49984265)">
  <path style="opacity:0.1" d="M 37.181641,3.0019531 C 35.53704,3.0525981 34.076743,4.5704926 33.517578,5.5585938 L 22.433594,25.539062 22.115234,31.011719 22,33 23.582031,31.857422 27.933594,28.712891 28.074219,28.611328 39.396484,8.4648438 C 40.672237,6.3275254 39.736369,3.8295667 38.341797,3.2246094 37.951582,3.0553365 37.561164,2.9902658 37.181641,3.0019531 Z"/>
  <path style="fill:#b1a390" d="m 22.433594,24.539062 -0.31836,5.472657 1.466797,0.845703 4.351563,-3.144531 z"/>
  <path style="fill:#505050" d="M 22.115234,30.011719 22,32 23.582031,30.857422 Z"/>
  <path style="fill:#a15f34" d="m 37.181641,2.0019531 c -1.644601,0.050645 -3.104898,1.5685395 -3.664063,2.5566407 l -11.083984,19.9804682 5.5,3.173829 0.140625,-0.101563 L 39.396484,7.4648438 C 40.672237,5.3275254 39.736369,2.8295667 38.341797,2.2246094 37.951582,2.0553365 37.561164,1.9902658 37.181641,2.0019531 Z"/>
 </g>
</svg>
